img/icons/namespace.svg

<svg height="14" viewBox="0 0 14 14" width="14" xmlns="http://www.w3.org/2000/svg"><path d="m5.46114286 12.5384047v-5.06576547c0-.43430977-.28742857-.86861952-.64685714-1.08606986l-4.16742857-2.60467678c-.35942858-.14536081-.64685715 0-.64685715.36162936v5.06576544c0 .43430976.28742857.86861951.64685715 1.08547891l4.16742857 2.6058586c.35942857.2168594.64685714.0720895.64685714-.3622202zm-4.168-9.62513162 4.096 2.60526767c.35942857.21685943.86285714.21685943 1.22171429.07208951l4.09600005-2.0988684c.3588571-.21685943.3588571-.50639928 0-.72325871l-4.31142862-2.60585858c-.28742857-.21685943-.86285714-.21685943-1.22171429 0l-3.88 2.0267789c-.35942857.21685943-.35942857.50639927-.00057143.72384961zm5.96457143 9.98676092 4.09542861-2.0988684c.3594285-.2168594.6468571-.6511692.6468571-1.08547894v-5.06517453c0-.43430977-.2874286-.57907969-.6468571-.36162936l-4.09542861 2.0982775c-.36000001.21745032-.64685714.65176009-.64685714 1.08606985v5.06576548c0 .4337188.28742857.5784888.64685714.3610384z" fill="#858585" transform="translate(1 .419851)"/></svg>

<?xml version="1.0" encoding="UTF-8"?>
<svg width="14px" height="14px" viewBox="0 0 14 14" version="1.1" xmlns="http://www.w3.org/2000/svg" xmlns:xlink="http://www.w3.org/1999/xlink">
    <title>namespace</title>
    <g id="Icon" stroke="none" stroke-width="1" fill="none" fill-rule="evenodd">
        <g id="Visual-Studio" transform="translate(-107.000000, -250.000000)" fill="#858585" fill-rule="nonzero">
            <g id="namespace" transform="translate(107.000000, 250.000000)">
                <g id="应用" transform="translate(1.000000, 0.419851)">
                    <path d="M5.46114286,12.5384047 L5.46114286,7.47263923 C5.46114286,7.03832946 5.17371429,6.60401971 4.81428572,6.38656937 L0.64685715,3.78189259 C0.287428571,3.63653178 0,3.78189259 0,4.14352195 L0,9.20928739 C0,9.64359715 0.287428571,10.0779069 0.64685715,10.2947663 L4.81428572,12.9006249 C5.17371429,13.1174843 5.46114286,12.9727144 5.46114286,12.5384047 Z M1.29314286,2.91327308 L5.38914286,5.51854075 C5.74857143,5.73540018 6.252,5.73540018 6.61085715,5.59063026 L10.7068572,3.49176186 C11.0657143,3.27490243 11.0657143,2.98536258 10.7068572,2.76850315 L6.39542858,0.162644572 C6.10800001,-0.0542148573 5.53257144,-0.0542148573 5.17371429,0.162644572 L1.29371429,2.18942347 C0.934285721,2.4062829 0.934285721,2.69582274 1.29314286,2.91327308 Z M7.25771429,12.900034 L11.3531429,10.8011656 C11.7125714,10.5843062 12,10.1499964 12,9.71568666 L12,4.65051213 C12,4.21620236 11.7125714,4.07143244 11.3531429,4.28888277 L7.25771429,6.38716027 C6.89771428,6.60461059 6.61085715,7.03892036 6.61085715,7.47323012 L6.61085715,12.5389956 C6.61085715,12.9727144 6.89828572,13.1174844 7.25771429,12.900034 Z" id="形状"></path>
                </g>
            </g>
        </g>
    </g>
</svg>
